app/assets/images/payment_icons/metrobank.svg

<svg xmlns="http://www.w3.org/2000/svg" width="38" height="24" viewBox="0 0 38 24" fill="none" aria-labelledby="pi-metrobank" role="img"><title id="pi-metrobank">Metro Bank</title><rect width="38" height="24" fill="white"/><path d="M6.21 9.01494C6.321 8.96294 6.427 9.05694 6.518 9.10994C7.322 9.65094 8.142 10.1699 8.945 10.7109C9.161 10.8589 9.146 11.2169 8.923 11.3509C8.079 11.9089 7.23 12.4569 6.388 13.0159C6.35807 13.0354 6.32327 13.0461 6.28757 13.0468C6.25186 13.0475 6.21667 13.0382 6.186 13.0199C5.374 12.4879 4.561 11.9579 3.749 11.4279C3.622 11.3479 3.469 11.2479 3.467 11.0779C3.434 10.9009 3.554 10.7379 3.7 10.6519C4.539 10.1099 5.363 9.54494 6.21 9.01494ZM7.142 10.0949C7.276 10.3119 7.419 10.5229 7.546 10.7439C7.696 10.7539 7.847 10.7519 7.998 10.7439C7.708 10.5339 7.41 10.3339 7.142 10.0949ZM4.562 10.7449C4.709 10.7499 4.857 10.7569 5.005 10.7449C5.144 10.5379 5.271 10.3249 5.415 10.1209C5.131 10.3309 4.852 10.5449 4.562 10.7449ZM5.604 10.7489H6.011L6.01 10.1319C5.887 10.3459 5.745 10.5469 5.604 10.7489ZM6.559 10.1509C6.556 10.3509 6.556 10.5509 6.559 10.7489H6.95L6.559 10.1509ZM4.563 11.2929C4.85 11.5049 5.135 11.7189 5.423 11.9319C5.272 11.7259 5.139 11.5079 5.003 11.2929H4.563ZM5.603 11.2929C5.743 11.4999 5.883 11.7059 6.013 11.9199C6.01087 11.7109 6.01087 11.5019 6.013 11.2929H5.603ZM6.561 11.2909C6.55699 11.4942 6.55599 11.6976 6.558 11.9009C6.688 11.6969 6.822 11.4939 6.957 11.2929C6.825 11.2929 6.693 11.2899 6.561 11.2909ZM7.578 11.2919C7.421 11.5029 7.286 11.7289 7.148 11.9519C7.416 11.7069 7.72 11.5079 8.012 11.2919H7.578ZM10.272 10.8669L11.022 10.8639C11.342 11.7559 11.666 12.6459 11.944 13.5519C12.026 13.1749 12.171 12.8159 12.3 12.4539C12.492 11.9239 12.689 11.3939 12.885 10.8649C13.132 10.8669 13.378 10.8669 13.625 10.8629C13.697 11.8269 13.748 12.7919 13.812 13.7559C13.834 14.0399 13.847 14.3249 13.857 14.6099H13.212C13.188 14.0239 13.152 13.4379 13.122 12.8519C13.109 12.5529 13.112 12.2519 13.065 11.9559C12.996 12.2509 12.89 12.5359 12.788 12.8199L12.142 14.5909C11.982 14.5889 11.823 14.5849 11.664 14.5949C11.416 13.9229 11.194 13.2409 10.961 12.5629C10.901 12.3851 10.8506 12.2042 10.81 12.0209C10.746 12.8819 10.708 13.7459 10.65 14.6079C10.438 14.6079 10.227 14.6079 10.016 14.6039C10.106 13.3589 10.192 12.1129 10.272 10.8669ZM23.607 10.8649H24.251C24.251 11.3019 24.253 11.7389 24.251 12.1769C24.651 11.7839 25.36 11.7779 25.765 12.1669C26.065 12.4599 26.181 12.8959 26.162 13.3049C26.157 13.7319 25.996 14.1849 25.639 14.4409C25.214 14.7669 24.547 14.7469 24.172 14.3509L24.164 14.6099C23.968 14.6099 23.772 14.6059 23.576 14.6059C23.609 14.3409 23.608 14.0729 23.608 13.8059C23.61 12.8259 23.608 11.8459 23.607 10.8649ZM24.71 12.4449C24.6058 12.4807 24.5119 12.5413 24.4363 12.6214C24.3607 12.7015 24.3057 12.7988 24.276 12.9049C24.23 13.1099 24.254 13.3229 24.251 13.5319C24.2549 13.6883 24.3199 13.8368 24.4321 13.9458C24.5442 14.0548 24.6946 14.1155 24.851 14.1149C25.095 14.1359 25.321 13.9679 25.421 13.7519C25.575 13.3819 25.559 12.9069 25.287 12.5949C25.2133 12.5202 25.1207 12.4669 25.0192 12.4404C24.9176 12.414 24.8108 12.4156 24.71 12.4449ZM31.989 10.8679C32.204 10.8679 32.419 10.8629 32.635 10.8649C32.632 11.5419 32.62 12.2189 32.644 12.8959C32.918 12.5689 33.189 12.2389 33.482 11.9269C33.742 11.9429 34.002 11.9279 34.262 11.9309C33.912 12.3099 33.559 12.6869 33.203 13.0599C33.591 13.5739 33.978 14.0899 34.363 14.6059C34.099 14.6079 33.834 14.6059 33.569 14.6059C33.333 14.2529 33.075 13.9159 32.836 13.5649C32.8142 13.5313 32.7843 13.5038 32.749 13.4849C32.696 13.5479 32.625 13.6129 32.632 13.7029C32.63 14.0039 32.63 14.3049 32.632 14.6059H31.992C31.992 13.3599 31.997 12.1139 31.989 10.8679ZM17.215 11.5099C17.425 11.4369 17.635 11.3689 17.849 11.3109C17.847 11.5169 17.847 11.7219 17.847 11.9279C18.039 11.9359 18.231 11.9279 18.424 11.9349C18.458 11.9299 18.482 11.9559 18.508 11.9749C18.508 12.1379 18.51 12.3009 18.509 12.4649C18.288 12.4665 18.067 12.4669 17.846 12.4659L17.848 13.5039C17.851 13.6539 17.838 13.8059 17.88 13.9509C17.898 14.0069 17.931 14.0689 17.992 14.0859C18.14 14.1339 18.297 14.0899 18.44 14.0439C18.467 14.2229 18.472 14.4039 18.478 14.5839C18.231 14.6609 17.96 14.7069 17.707 14.6279C17.6271 14.6048 17.5527 14.5658 17.4882 14.5135C17.4236 14.4611 17.3701 14.3963 17.331 14.3229C17.2548 14.1518 17.2162 13.9663 17.218 13.7789V12.4659H16.834L16.837 11.9319H17.217L17.215 11.5099Z" fill="#023184"/><path d="M3.47299 11.803C3.48099 11.681 3.63799 11.595 3.74399 11.66C3.98299 11.789 4.19699 11.956 4.42599 12.102C5.04399 12.506 5.64699 12.934 6.27599 13.321C6.39499 13.264 6.50599 13.194 6.61499 13.121C7.31399 12.653 8.01299 12.184 8.71399 11.719C8.79562 11.6586 8.89712 11.6315 8.99799 11.643C9.03199 11.691 9.06799 11.737 9.10299 11.783C9.10299 12.599 9.09799 13.414 9.10299 14.229C9.09899 14.425 8.92799 14.614 8.72499 14.608H3.85199C3.70999 14.621 3.58799 14.522 3.51599 14.41C3.46599 14.334 3.47599 14.24 3.47499 14.154C3.47399 13.37 3.47199 12.586 3.47299 11.803ZM6.70799 13.763C6.60799 13.82 6.51399 13.893 6.39799 13.911C6.23235 13.9347 6.06378 13.897 5.92399 13.805C5.38099 13.465 4.83699 13.125 4.29199 12.789C4.23899 12.757 4.18399 12.716 4.11799 12.733C4.10999 13.145 4.11699 13.556 4.11299 13.968C4.18999 13.988 4.26899 14.002 4.34899 14C5.71199 13.998 7.07499 14.004 8.43799 13.993C8.47499 13.765 8.46199 13.533 8.46299 13.304C8.46299 13.105 8.47599 12.904 8.43599 12.707C7.84599 13.036 7.28799 13.417 6.70799 13.763ZM14.542 12.328C14.923 11.83 15.722 11.714 16.214 12.112C16.587 12.439 16.674 12.982 16.599 13.452H14.868C14.894 13.708 15.043 13.972 15.295 14.064C15.652 14.171 16.038 14.106 16.376 13.968C16.416 14.139 16.471 14.308 16.491 14.484C16.061 14.649 15.58 14.717 15.127 14.608C14.9292 14.555 14.7487 14.4513 14.6033 14.3071C14.4579 14.163 14.3527 13.9833 14.298 13.786C14.17 13.296 14.231 12.738 14.542 12.328ZM15.006 12.637C14.952 12.729 14.916 12.83 14.876 12.93C15.25 12.932 15.625 12.932 16 12.93C15.977 12.833 15.956 12.734 15.912 12.644C15.8729 12.5685 15.8142 12.5049 15.7421 12.4598C15.6699 12.4148 15.587 12.39 15.502 12.388C15.4046 12.3814 15.3072 12.401 15.22 12.4448C15.1328 12.4886 15.0589 12.5549 15.006 12.637ZM19.572 12.208C19.769 11.956 20.112 11.813 20.427 11.906C20.424 12.107 20.425 12.308 20.428 12.509C20.289 12.506 20.146 12.483 20.01 12.521C19.9292 12.5556 19.8573 12.6078 19.7995 12.674C19.7417 12.7401 19.6995 12.8184 19.676 12.903C19.639 13.016 19.643 13.136 19.644 13.253V14.608H18.994C18.988 13.716 19.025 12.823 18.98 11.931H19.562L19.572 12.208ZM21.69 11.9C22.034 11.84 22.404 11.91 22.69 12.114C22.982 12.312 23.158 12.649 23.205 12.994C23.245 13.336 23.214 13.697 23.049 14.004C22.877 14.324 22.559 14.554 22.206 14.633C21.803 14.725 21.353 14.638 21.037 14.366C20.738 14.102 20.592 13.696 20.599 13.303C20.591 12.926 20.712 12.533 20.982 12.261C21.169 12.066 21.422 11.939 21.689 11.9H21.69ZM21.763 12.423C21.6088 12.4642 21.4766 12.5635 21.394 12.7C21.249 12.931 21.218 13.219 21.259 13.485C21.296 13.759 21.465 14.03 21.736 14.121C21.8515 14.1529 21.974 14.1486 22.087 14.1088C22.2 14.0689 22.2981 13.9953 22.368 13.898C22.4995 13.71 22.5695 13.4859 22.5684 13.2565C22.5674 13.0272 22.4952 12.8037 22.362 12.617C22.2897 12.5329 22.1957 12.4703 22.0902 12.4361C21.9847 12.4018 21.8709 12.3973 21.763 12.423ZM26.64 12.14C27.004 11.933 27.436 11.826 27.852 11.903C28.098 11.94 28.332 12.076 28.464 12.291C28.614 12.542 28.634 12.844 28.628 13.131C28.633 13.623 28.602 14.119 28.68 14.608C28.479 14.608 28.278 14.611 28.078 14.61C28.072 14.539 28.068 14.468 28.063 14.396C27.9533 14.4941 27.8246 14.5685 27.6849 14.6146C27.5452 14.6607 27.3975 14.6776 27.251 14.664C27.1225 14.6575 26.9973 14.6206 26.8859 14.5563C26.7744 14.4919 26.6799 14.402 26.61 14.294C26.501 14.1134 26.4615 13.8993 26.4988 13.6917C26.5362 13.4841 26.6479 13.2973 26.813 13.166C27.143 12.893 27.592 12.876 27.998 12.831C27.968 12.677 27.908 12.496 27.745 12.438C27.425 12.342 27.072 12.444 26.811 12.643C26.752 12.476 26.696 12.307 26.64 12.139V12.14ZM27.238 13.544C27.055 13.703 27.102 14.062 27.345 14.135C27.565 14.182 27.821 14.089 27.936 13.89C28.029 13.727 28 13.53 27.993 13.351C27.735 13.355 27.439 13.356 27.238 13.544ZM29.743 12.18C30.075 11.845 30.645 11.776 31.038 12.041C31.271 12.192 31.402 12.46 31.448 12.727C31.476 12.877 31.466 13.028 31.469 13.179C31.471 13.655 31.465 14.131 31.475 14.606C31.26 14.608 31.045 14.609 30.829 14.608C30.831 14.182 30.835 13.757 30.832 13.331C30.83 13.091 30.855 12.828 30.715 12.617C30.614 12.457 30.401 12.409 30.226 12.453C30.1054 12.4871 29.999 12.5589 29.9221 12.6578C29.8453 12.7568 29.8022 12.8778 29.799 13.003C29.797 13.538 29.799 14.073 29.799 14.606C29.585 14.609 29.371 14.609 29.157 14.606C29.157 14.097 29.16 13.588 29.159 13.079C29.156 12.712 29.169 12.343 29.129 11.976L29.179 11.94C29.357 11.923 29.536 11.935 29.715 11.932L29.743 12.18Z" fill="#023184"/></svg>

<svg width="38" height="24" viewBox="0 0 38 24" role="img" fill="none" xmlns="http://www.w3.org/2000/svg" aria-labelledby="pi-metrobank"><title id="pi-metrobank">Metro Bank</title><g><path opacity=".07" d="M35 0H3C1.3 0 0 1.3 0 3v18c0 1.7 1.4 3 3 3h32c1.7 0 3-1.3 3-3V3c0-1.7-1.4-3-3-3z" fill="#000"/><path d="M35 1c1.1 0 2 .9 2 2v18c0 1.1-.9 2-2 2H3c-1.1 0-2-.9-2-2V3c0-1.1.9-2 2-2h32z" fill="#fff"/><path d="M6.21 9.015c.111-.052.217.042.308.095.804.541 1.624 1.06 2.427 1.601.216.148.201.506-.022.64-.844.558-1.693 1.106-2.535 1.665a.191.191 0 01-.202.004c-.812-.532-1.625-1.062-2.437-1.592-.127-.08-.28-.18-.282-.35-.033-.177.087-.34.233-.426.839-.542 1.663-1.107 2.51-1.637zm.932 1.08c.134.217.277.428.404.649.15.01.301.008.452 0-.29-.21-.588-.41-.856-.649zm-2.58.65c.147.005.295.012.443 0 .139-.207.266-.42.41-.624-.284.21-.563.424-.853.624zm1.042.004h.407l-.001-.617c-.123.214-.265.415-.406.617zm.955-.598c-.003.2-.003.4 0 .598h.391l-.39-.598zm-1.996 1.142c.287.212.572.426.86.639-.151-.206-.284-.424-.42-.639h-.44zm1.04 0c.14.207.28.413.41.627a30.786 30.786 0 010-.627h-.41zm.958-.002a20.66 20.66 0 00-.003.61c.13-.204.264-.407.399-.608-.132 0-.264-.003-.396-.002zm1.017.001c-.157.211-.292.437-.43.66.268-.245.572-.444.864-.66h-.434zM10.272 10.867l.75-.003c.32.892.644 1.782.922 2.688.082-.377.227-.736.356-1.098.192-.53.389-1.06.585-1.589.247.002.493.002.74-.002.072.964.123 1.929.187 2.893.022.284.035.569.045.854h-.645c-.024-.586-.06-1.172-.09-1.758-.013-.299-.01-.6-.057-.896-.069.295-.175.58-.277.864l-.646 1.771c-.16-.002-.319-.006-.478.004-.248-.672-.47-1.354-.703-2.032a5.225 5.225 0 01-.151-.542c-.064.861-.102 1.725-.16 2.587-.212 0-.423 0-.634-.004.09-1.245.176-2.491.256-3.737zM23.607 10.865h.644c0 .437.002.874 0 1.312.4-.393 1.109-.399 1.514-.01.3.293.416.729.397 1.138-.005.427-.166.88-.523 1.136-.425.326-1.092.306-1.467-.09l-.008.259c-.196 0-.392-.004-.588-.004.033-.265.032-.533.032-.8.002-.98 0-1.96-.001-2.941zm1.103 1.58a.68.68 0 00-.434.46c-.046.205-.022.418-.025.627a.598.598 0 00.6.583c.244.021.47-.147.57-.363.154-.37.138-.845-.134-1.157a.582.582 0 00-.577-.15zM31.989 10.868c.215 0 .43-.005.646-.003-.003.677-.015 1.354.009 2.031.274-.327.545-.657.838-.969.26.016.52.001.78.004-.35.379-.703.756-1.059 1.129.388.514.775 1.03 1.16 1.546-.264.002-.529 0-.794 0-.236-.353-.494-.69-.733-1.041a.236.236 0 00-.087-.08c-.053.063-.124.128-.117.218-.002.301-.002.602 0 .903h-.64c0-1.246.005-2.492-.003-3.738zM17.215 11.51c.21-.073.42-.141.634-.199-.002.206-.002.411-.002.617.192.008.384 0 .577.007.034-.005.058.021.084.04 0 .163.002.326.001.49a58.61 58.61 0 01-.663.001l.002 1.038c.003.15-.01.302.032.447.018.056.051.118.112.135.148.048.305.004.448-.042.027.179.032.36.038.54-.247.077-.518.123-.771.044a.623.623 0 01-.376-.305 1.307 1.307 0 01-.113-.544v-1.313h-.384l.003-.534h.38l-.002-.421z" fill="#023184"/><path d="M3.473 11.803c.008-.122.165-.208.271-.143.239.129.453.296.682.442.618.404 1.221.832 1.85 1.219.119-.057.23-.127.339-.2.699-.468 1.398-.937 2.099-1.402a.401.401 0 01.284-.076c.034.048.07.094.105.14 0 .816-.005 1.631 0 2.446-.004.196-.175.385-.378.379H3.852c-.142.013-.264-.086-.336-.198-.05-.076-.04-.17-.041-.256-.001-.784-.003-1.567-.002-2.35zm3.235 1.96c-.1.057-.194.13-.31.148a.686.686 0 01-.474-.106c-.543-.34-1.087-.68-1.632-1.016-.053-.032-.108-.073-.174-.056-.008.412-.001.823-.005 1.235.077.02.156.034.236.032 1.363-.002 2.726.004 4.089-.007.037-.228.024-.46.025-.689 0-.199.013-.4-.027-.597-.59.329-1.148.71-1.728 1.056zM14.542 12.328c.381-.498 1.18-.614 1.672-.216.373.327.46.87.385 1.34h-1.731c.026.256.175.52.427.612.357.107.743.042 1.081-.096.04.171.095.34.115.516-.43.165-.911.233-1.364.124a1.176 1.176 0 01-.829-.822c-.128-.49-.067-1.048.244-1.458zm.464.309c-.054.092-.09.193-.13.293.374.002.749.002 1.124 0-.023-.097-.044-.196-.088-.286a.474.474 0 00-.41-.256.546.546 0 00-.496.249zM19.572 12.208c.197-.252.54-.395.855-.302-.003.201-.002.402.001.603-.139-.003-.282-.026-.418.012a.586.586 0 00-.334.382c-.037.113-.033.233-.032.35v1.355h-.65c-.006-.892.031-1.785-.014-2.677h.582l.01.277zM21.69 11.9c.344-.06.714.01 1 .214.292.198.468.535.515.88.04.342.009.703-.156 1.01-.172.32-.49.55-.843.629-.403.092-.853.005-1.169-.267-.299-.264-.445-.67-.438-1.063-.008-.377.113-.77.383-1.042.187-.195.44-.322.707-.361zm.073.523a.618.618 0 00-.369.277c-.145.231-.176.519-.135.785.037.274.206.545.477.636a.586.586 0 00.632-.223 1.11 1.11 0 00-.006-1.281.604.604 0 00-.598-.194zM26.64 12.14c.364-.207.796-.314 1.212-.237.246.037.48.173.612.388.15.251.17.553.164.84.005.492-.026.988.052 1.477-.201 0-.402.003-.602.002-.006-.071-.01-.142-.015-.214a1.07 1.07 0 01-.812.268.812.812 0 01-.641-.37.868.868 0 01.203-1.128c.33-.273.779-.29 1.185-.335-.03-.154-.09-.335-.253-.393-.32-.096-.673.006-.934.205-.059-.167-.115-.336-.171-.504zm.598 1.404c-.183.159-.136.518.107.591.22.047.476-.046.591-.245.093-.163.064-.36.057-.539-.258.004-.554.005-.755.193zM29.743 12.18c.332-.335.902-.404 1.295-.139.233.151.364.419.41.686.028.15.018.301.021.452.002.476-.004.952.006 1.427-.215.002-.43.003-.646.002.002-.426.006-.851.003-1.277-.002-.24.023-.503-.117-.714-.101-.16-.314-.208-.489-.164a.587.587 0 00-.427.55c-.002.535 0 1.07 0 1.603-.214.003-.428.003-.642 0 0-.509.003-1.018.002-1.527-.003-.367.01-.736-.03-1.103l.05-.036c.178-.017.357-.005.536-.008l.028.248z" fill="#023184"/></g><defs><clipPath><path fill="#fff" d="M0 0h38v24H0z"/></clipPath></defs></svg>
